X: 1
T: Stephan and Lori 
C: David A. Kaynor February 2021
S: https://natunelist.net/stephan-and-lori/ 2010-6-10
M: 3/4
L: 1/8
K: G
"^A"|: BA |\
"Em"G2E2ED | B,2E2BA | G2E3D | E3B cB |\
"Am"A2E3D | E3B cB |1 "Am"A3E FG | "B7"F4 :|2 "D" A3 G "Am"FE | "D"ED D2 B,C ||
"^B"||\
"G"sD3G FG | D3G FG | "Am"E3A GA | E4E2 |\
"D"F3d ^cd | "G"G3 d ^cds | "Am"e3f ed | "D"d4D2 ||
"^C"|:\
"C"E2c3E | E2 c3E | "G" D2B3 A | B4D2 |\
"C"C2A3C | "G"B,2G3G | "D"FD D2GF | "G"G6 :|
